X: 29760
T: O For I For
R: jig
M: 6/8
K: Dmajor
FDF Adc|BGB e2 d|cAc eag|fdB A^G=G|
FDF A2 d|BG/A/B e2 d|1 cAc f2 e|d3:|2 cBA gfe|d3||
a2 a fga|gbg B>ed|cec ABc|dcB A>fg|
a2 a f2 a|g/a/bg B2 d|1 cBA gfe|d3:|2 cAc f2 e|d3||

